images/sb-s-icon.svg

<svg width="24" height="24" viewBox="0 0 24 24" fill="none" xmlns="http://www.w3.org/2000/svg">
    <path fill-rule="evenodd" clip-rule="evenodd" d="M14 8.19434C13.4477 8.19434 13 8.64206 13 9.19434V20.1943C13 20.7466 13.4477 21.1943 14 21.1943H21C21.5523 21.1943 22 20.7466 22 20.1943V9.19434C22 8.64206 21.5523 8.19434 21 8.19434H14ZM15.5 13.1943C15.2239 13.1943 15 13.4182 15 13.6943C15 13.9704 15.2239 14.1943 15.5 14.1943H19.5C19.7761 14.1943 20 13.9704 20 13.6943C20 13.4182 19.7761 13.1943 19.5 13.1943H15.5ZM15 15.6943C15 15.4182 15.2239 15.1943 15.5 15.1943H19.5C19.7761 15.1943 20 15.4182 20 15.6943C20 15.9704 19.7761 16.1943 19.5 16.1943H15.5C15.2239 16.1943 15 15.9704 15 15.6943ZM15.5 17.1943C15.2239 17.1943 15 17.4182 15 17.6943C15 17.9704 15.2239 18.1943 15.5 18.1943H19.5C19.7761 18.1943 20 17.9704 20 17.6943C20 17.4182 19.7761 17.1943 19.5 17.1943H15.5Z" fill="#D4E5FB"/>
    <path fill-rule="evenodd" clip-rule="evenodd" d="M2 7.38906C2 7.04473 2.17715 6.72461 2.46892 6.54174L9.46892 2.15428C10.1349 1.73684 11 2.21559 11 3.0016V20.1946C11 20.7469 10.5523 21.1946 10 21.1946H3C2.44772 21.1946 2 20.7469 2 20.1946V7.38906ZM4 11.6946C4 11.4185 4.22386 11.1946 4.5 11.1946H8.5C8.77614 11.1946 9 11.4185 9 11.6946C9 11.9708 8.77614 12.1946 8.5 12.1946H4.5C4.22386 12.1946 4 11.9708 4 11.6946ZM4.5 13.1946C4.22386 13.1946 4 13.4185 4 13.6946C4 13.9708 4.22386 14.1946 4.5 14.1946H8.5C8.77614 14.1946 9 13.9708 9 13.6946C9 13.4185 8.77614 13.1946 8.5 13.1946H4.5ZM4 15.6946C4 15.4185 4.22386 15.1946 4.5 15.1946H8.5C8.77614 15.1946 9 15.4185 9 15.6946C9 15.9708 8.77614 16.1946 8.5 16.1946H4.5C4.22386 16.1946 4 15.9708 4 15.6946ZM4.5 17.1946C4.22386 17.1946 4 17.4185 4 17.6946C4 17.9708 4.22386 18.1946 4.5 18.1946H8.5C8.77614 18.1946 9 17.9708 9 17.6946C9 17.4185 8.77614 17.1946 8.5 17.1946H4.5Z" fill="#2A7DEC"/>
</svg>

<svg width="24" height="24" fill="none" xmlns="http://www.w3.org/2000/svg"><path fill-rule="evenodd" clip-rule="evenodd" d="M14 8.194a1 1 0 0 0-1 1v11a1 1 0 0 0 1 1h7a1 1 0 0 0 1-1v-11a1 1 0 0 0-1-1h-7Zm1.5 5a.5.5 0 0 0 0 1h4a.5.5 0 0 0 0-1h-4Zm-.5 2.5a.5.5 0 0 1 .5-.5h4a.5.5 0 0 1 0 1h-4a.5.5 0 0 1-.5-.5Zm.5 1.5a.5.5 0 0 0 0 1h4a.5.5 0 0 0 0-1h-4Z" fill="#D4E5FB"/><path fill-rule="evenodd" clip-rule="evenodd" d="M2 7.39a1 1 0 0 1 .469-.848l7-4.388A1 1 0 0 1 11 3.002v17.193a1 1 0 0 1-1 1H3a1 1 0 0 1-1-1V7.389Zm2 4.305a.5.5 0 0 1 .5-.5h4a.5.5 0 0 1 0 1h-4a.5.5 0 0 1-.5-.5Zm.5 1.5a.5.5 0 0 0 0 1h4a.5.5 0 1 0 0-1h-4Zm-.5 2.5a.5.5 0 0 1 .5-.5h4a.5.5 0 0 1 0 1h-4a.5.5 0 0 1-.5-.5Zm.5 1.5a.5.5 0 0 0 0 1h4a.5.5 0 1 0 0-1h-4Z" fill="#2A7DEC"/></svg>
